img/AE2-vector-logo.svg

<?xml version="1.0" encoding="UTF-8" standalone="no"?>
<!DOCTYPE svg PUBLIC "-//W3C//DTD SVG 1.1//EN" "http://www.w3.org/Graphics/SVG/1.1/DTD/svg11.dtd">
<svg width="100%" height="100%" viewBox="0 0 1281 323" version="1.1" xmlns="http://www.w3.org/2000/svg" xmlns:xlink="http://www.w3.org/1999/xlink" xml:space="preserve" xmlns:serif="http://www.serif.com/" style="fill-rule:evenodd;clip-rule:evenodd;stroke-linejoin:round;stroke-miterlimit:1.41421;">
    <g id="Warstwa_1-2">
        <path d="M107.49,110.29C114.82,104.96 121.31,120.04 128.4,109.65C127.11,116.92 122.83,120.41 116.97,120.82C110.91,121.24 108.22,116.78 107.49,110.29Z" style="fill:white;"/>
        <path d="M206.6,142.34C196.6,74.99 206.6,59.68 206.6,59.68C152.19,68.86 103.51,33.68 103.51,33.68C103.51,33.68 54.83,68.87 0.42,59.68C0.42,59.68 10.42,74.99 0.42,142.34C0.42,142.34 0.21,143.81 0.08,146.52C-0.29,154.52 0.08,173.46 9.18,197.23C11.323,190.687 13.912,184.298 16.93,178.11C20.073,171.643 23.627,165.383 27.57,159.37C28.81,157.37 30.143,155.397 31.57,153.45L31.38,153.84C34,150.16 37,146.59 39.86,143C31.169,157.464 24.633,173.119 20.46,189.47C19.62,192.723 18.87,195.977 18.21,199.23C17.288,203.742 16.597,208.298 16.14,212.88C19.27,218.992 22.767,224.909 26.61,230.6C27.428,224.037 28.698,217.538 30.41,211.15C33.952,198.092 39.091,185.52 45.71,173.72C48.06,169.49 50.92,165.36 53.54,161.18C44.993,179.523 39.681,199.207 37.84,219.36C37.73,220.49 37.65,221.61 37.57,222.73C36.953,230.399 37.098,238.11 38,245.75C38.08,246.36 38.17,246.95 38.26,247.56L41.68,251.46C42.524,252.258 43.516,252.883 44.6,253.3C47.533,256.493 50.667,259.693 54,262.9C54,262.66 54,262.41 53.95,262.17C53.524,255.786 53.424,249.384 53.65,242.99C54.235,227.744 56.434,212.603 60.21,197.82C61.73,191.82 63.92,185.68 65.8,179.6C61.373,204.385 61.143,229.739 65.12,254.6C65.25,255.4 65.36,256.2 65.49,257C66.05,260.36 66.7,263.65 67.43,266.9C68.217,270.3 69.097,273.667 70.07,277C78.549,283.774 87.41,290.054 96.61,295.81C93.809,288.837 91.445,281.696 89.53,274.43L88.53,273.74L89.37,274C84.213,253.707 82.163,232.748 83.29,211.84C83.58,205.61 84.51,199.2 85.15,192.84C85.755,218.812 90.85,244.485 100.21,268.72C101.977,273.353 103.9,277.83 105.98,282.15C106.47,283.15 106.98,284.15 107.45,285.15C109.057,288.317 110.757,291.39 112.55,294.37C118.37,290.643 123.843,286.877 128.97,283.07C128.8,282.72 128.62,282.38 128.46,282.07C126.63,278.2 124.93,274.21 123.32,270.07C118.29,257.169 114.499,243.819 112,230.2C110.86,224.08 110.3,217.62 109.47,211.31C114.249,229.819 121.398,247.633 130.74,264.31C133.013,268.383 135.387,272.353 137.86,276.22C145.613,269.959 152.955,263.205 159.84,256C214.73,198.43 206.6,142.34 206.6,142.34ZM151.54,245.07C135.75,222.45 122.89,192.93 128.25,167.47C130.2,158.24 135.58,149.87 139.75,140.26L121.82,145.19C128.43,138.75 137.87,135.52 162.93,131.56C146.25,125.56 131.06,129.56 115.48,130.89C115.58,128.96 115.65,127.49 115.69,126.84C110.58,124.38 105.69,122.1 100.91,119.64C99.93,119.093 99.196,118.191 98.86,117.12C96.64,107.6 91.14,106.47 83.48,110.58C91.48,102.18 128,100.64 139.58,109.11C134.22,114.11 132.91,117.01 127.58,121.95L128.08,123.6C135,124.27 141.96,124.72 148.85,125.67C153.443,126.233 157.967,127.265 162.35,128.75C171.53,132.02 179.41,136.9 178.62,150.21C191.33,134.49 188.4,117.36 172.33,109.01C169.729,107.562 166.997,106.364 164.17,105.43C159.92,104.17 157.32,101.8 154.97,97.35C152.89,93.41 147.8,87.74 143.75,85.89C141.28,84.76 139.75,83.68 137.25,82.89C126.25,78.21 112.54,78.26 96.34,78.24C93.1,78.24 89.66,78.51 86.34,78.66L86,79.2C93.891,79.62 101.73,80.725 109.43,82.5C108.317,82.56 107.203,82.64 106.09,82.74C98.429,82.086 90.72,82.233 83.09,83.18C80.09,83.52 77.03,84.18 74,84.64L58.25,87.05C63.89,86.72 84.65,84.86 89.77,85.18C61.51,90.87 36.43,103.5 15.91,125.8C18.45,102.88 18.44,86.66 17.37,75.31L19,75.31C57,75.31 89.49,58.63 103.55,50.14C117.61,58.63 150.06,75.32 188.1,75.31L189.69,75.31C188.35,89.52 188.69,111.38 193.59,144.55C193.87,147 199.28,194.5 151.54,245.07Z" style="fill:white;fill-rule:nonzero;"/>
        <path d="M92.56,30.59L103.16,22.72L113.02,30.06L108.95,18.86L119.18,11.49L106.34,12.07L102.93,0L99.13,11.46L87.19,10.84L97.06,18.18L92.56,30.59Z" style="fill:white;fill-rule:nonzero;"/>
        <path d="M141.36,43.61L142.35,33.89L151.28,32.17L142.96,27.92L143.95,18.22L137.82,25.3L129.5,21.02L134.03,29.64L127.89,36.69L136.82,34.96L141.36,43.61Z" style="fill:white;fill-rule:nonzero;"/>
        <path d="M61.59,42.53L68.21,35.36L76.39,39.34L72.28,30.95L78.9,23.78L69.75,25.77L65.66,17.35L64.11,26.96L54.97,28.92L63.15,32.9L61.59,42.53Z" style="fill:white;fill-rule:nonzero;"/>
        <path d="M173.94,51.66L174.77,42.63L183.06,40.95L175.43,37.76L176.34,29.08L170.74,35.88L162.98,32.06L167.14,39.39L161.37,45.35L169.65,43.67L173.94,51.66Z" style="fill:white;fill-rule:nonzero;"/>
        <path d="M32.89,51.37L38.01,43.88L46.06,46.44L40.95,39.94L45.97,32.8L37.77,36.02L32.85,28.92L32.91,37.34L24.97,39.74L33.03,42.3L32.89,51.37Z" style="fill:white;fill-rule:nonzero;"/>
        <g transform="matrix(1,0,0,1,292.54,155.33)">
            <text x="0px" y="0px" style="font-family:'ArialMT', 'Arial', sans-serif;font-size:164.99px;fill:white;">AKADEMIA</text>
        </g>
        <g transform="matrix(0.98,0,0,1,296.86,289.85)">
            <text x="0px" y="0px" style="font-family:'ArialMT', 'Arial', sans-serif;font-size:125.65px;fill:white;">EXPER<tspan x="423.701px 500.453px " y="0px 0px ">TÓ</tspan>W 2.0</text>
        </g>
    </g>
</svg>

<svg xmlns="http://www.w3.org/2000/svg" viewBox="0 0 1281 322.64"><defs><style>.cls-1,.cls-2,.cls-3,.cls-4{fill:#1b325e;}.cls-1{fill-rule:evenodd;}.cls-3{font-size:164.99px;}.cls-3,.cls-4{font-family:TrajanBold, Trajan;font-weight:700;}.cls-4{font-size:125.65px;}</style></defs><title>Zasób 4</title><g id="Warstwa_2" data-name="Warstwa 2"><g id="Warstwa_1-2" data-name="Warstwa 1"><path class="cls-1" d="M107.49,110.29c7.33-5.33,13.82,9.75,20.91-.64-1.29,7.27-5.57,10.76-11.43,11.17C110.91,121.24,108.22,116.78,107.49,110.29Z"/><path class="cls-2" d="M206.6,142.34c-10-67.35,0-82.66,0-82.66-54.41,9.18-103.09-26-103.09-26S54.83,68.87.42,59.68c0,0,10,15.31,0,82.66,0,0-.21,1.47-.34,4.18-.37,8,0,26.94,9.1,50.71a150.36,150.36,0,0,1,7.75-19.12,168.37,168.37,0,0,1,10.64-18.74q1.86-3,4-5.92l-.19.39C34,150.16,37,146.59,39.86,143a173.56,173.56,0,0,0-19.4,46.47q-1.26,4.88-2.25,9.76a135.24,135.24,0,0,0-2.07,13.65,170.74,170.74,0,0,0,10.47,17.72,143.92,143.92,0,0,1,3.8-19.45,164.55,164.55,0,0,1,15.3-37.43c2.35-4.23,5.21-8.36,7.83-12.54a175.58,175.58,0,0,0-15.7,58.18c-.11,1.13-.19,2.25-.27,3.37A116.59,116.59,0,0,0,38,245.75c.08.61.17,1.2.26,1.81l3.42,3.9a8.89,8.89,0,0,0,2.92,1.84Q49,258.09,54,262.9c0-.24,0-.49-.05-.73a188.4,188.4,0,0,1-.3-19.18,215.94,215.94,0,0,1,6.56-45.17c1.52-6,3.71-12.14,5.59-18.22a224.67,224.67,0,0,0-.68,75c.13.8.24,1.6.37,2.4.56,3.36,1.21,6.65,1.94,9.9Q68.61,272,70.07,277a283.08,283.08,0,0,0,26.54,18.81,181.34,181.34,0,0,1-7.08-21.38l-1-.69.84.26a207.13,207.13,0,0,1-6.08-62.16c.29-6.23,1.22-12.64,1.86-19a225.18,225.18,0,0,0,15.06,75.88q2.65,6.95,5.77,13.43c.49,1,1,2,1.47,3q2.41,4.75,5.1,9.22,8.73-5.59,16.42-11.3c-.17-.35-.35-.69-.51-1-1.83-3.87-3.53-7.86-5.14-12A218.1,218.1,0,0,1,112,230.2c-1.14-6.12-1.7-12.58-2.53-18.89a222,222,0,0,0,21.27,53q3.41,6.11,7.12,11.91A232,232,0,0,0,159.84,256C214.73,198.43,206.6,142.34,206.6,142.34ZM151.54,245.07c-15.79-22.62-28.65-52.14-23.29-77.6,1.95-9.23,7.33-17.6,11.5-27.21l-17.93,4.93c6.61-6.44,16.05-9.67,41.11-13.63-16.68-6-31.87-2-47.45-.67.1-1.93.17-3.4.21-4.05-5.11-2.46-10-4.74-14.78-7.2a4.39,4.39,0,0,1-2.05-2.52c-2.22-9.52-7.72-10.65-15.38-6.54,8-8.4,44.52-9.94,56.1-1.47-5.36,5-6.67,7.9-12,12.84l.5,1.65c6.92.67,13.88,1.12,20.77,2.07a67.73,67.73,0,0,1,13.5,3.08c9.18,3.27,17.06,8.15,16.27,21.46,12.71-15.72,9.78-32.85-6.29-41.2a47.23,47.23,0,0,0-8.16-3.58c-4.25-1.26-6.85-3.63-9.2-8.08-2.08-3.94-7.17-9.61-11.22-11.46-2.47-1.13-4-2.21-6.5-3-11-4.68-24.71-4.63-40.91-4.65-3.24,0-6.68.27-10,.42L86,79.2a136.63,136.63,0,0,1,23.43,3.3q-1.67.09-3.34.24a110.45,110.45,0,0,0-23,.44c-3,.34-6.06,1-9.09,1.46L58.25,87.05c5.64-.33,26.4-2.19,31.52-1.87-28.26,5.69-53.34,18.32-73.86,40.62,2.54-22.92,2.53-39.14,1.46-50.49H19c38,0,70.49-16.68,84.55-25.17,14.06,8.49,46.51,25.18,84.55,25.17h1.59c-1.34,14.21-1,36.07,3.9,69.24C193.87,147,199.28,194.5,151.54,245.07Z"/><polygon class="cls-2" points="92.56 30.59 103.16 22.72 113.02 30.06 108.95 18.86 119.18 11.49 106.34 12.07 102.93 0 99.13 11.46 87.19 10.84 97.06 18.18 92.56 30.59"/><polygon class="cls-2" points="141.36 43.61 142.35 33.89 151.28 32.17 142.96 27.92 143.95 18.22 137.82 25.3 129.5 21.02 134.03 29.64 127.89 36.69 136.82 34.96 141.36 43.61"/><polygon class="cls-2" points="61.59 42.53 68.21 35.36 76.39 39.34 72.28 30.95 78.9 23.78 69.75 25.77 65.66 17.35 64.11 26.96 54.97 28.92 63.15 32.9 61.59 42.53"/><polygon class="cls-2" points="173.94 51.66 174.77 42.63 183.06 40.95 175.43 37.76 176.34 29.08 170.74 35.88 162.98 32.06 167.14 39.39 161.37 45.35 169.65 43.67 173.94 51.66"/><polygon class="cls-2" points="32.89 51.37 38.01 43.88 46.06 46.44 40.95 39.94 45.97 32.8 37.77 36.02 32.85 28.92 32.91 37.34 24.97 39.74 33.03 42.3 32.89 51.37"/><text class="cls-3" transform="translate(292.54 155.33)">AKADEMIA</text><text class="cls-4" transform="translate(296.86 289.85) scale(0.98 1)">EXPERTÓW 2.0</text></g></g></svg>
